X: 1
T: Little Pickle
C: Joseph Lowe
B: Lowe's 4th Collection
Z: 1997 John Chambers <jc:trillian.mit.edu>
S: Handwritten MS from Barbara McOwen
R: jig
M: 6/8
L: 1/8
K: A
E |\
"A"A3 cBA | EAB cBA | "Bm"dcB fdB | "E7"bge efg |\
"A"a3 cBA | EAB cBA | "D"dcd "E7"efg | "A"aec A2 :|
|: B |\
"A"A2a aga | Ace edc | "G"B2=g gfg | B=GB "(E7)"dcB |\
"A"A2a aga | Ace edc | "D"dcd "E7"efg | "A"aec A2 :|
